src/cmd/32/defineprintarea.svg

<?xml version="1.0" encoding="UTF-8" standalone="no"?>
<svg
   xmlns:dc="http://purl.org/dc/elements/1.1/"
   xmlns:cc="http://creativecommons.org/ns#"
   xmlns:rdf="http://www.w3.org/1999/02/22-rdf-syntax-ns#"
   xmlns:svg="http://www.w3.org/2000/svg"
   xmlns="http://www.w3.org/2000/svg"
   xmlns:sodipodi="http://sodipodi.sourceforge.net/DTD/sodipodi-0.dtd"
   xmlns:inkscape="http://www.inkscape.org/namespaces/inkscape"
   viewBox="0 0 32 32"
   version="1.1"
   id="svg4"
   sodipodi:docname="defineprintarea.svg"
   inkscape:version="1.0.1 (3bc2e813f5, 2020-09-07)"
   inkscape:export-filename="/home/jupiter007/Libreoffice yaru theme fullcolor/build/cmd/32/defineprintarea.png"
   inkscape:export-xdpi="95"
   inkscape:export-ydpi="95">
  <metadata
     id="metadata10">
    <rdf:RDF>
      <cc:Work
         rdf:about="">
        <dc:format>image/svg+xml</dc:format>
        <dc:type
           rdf:resource="http://purl.org/dc/dcmitype/StillImage" />
      </cc:Work>
    </rdf:RDF>
  </metadata>
  <defs
     id="defs8">
    <linearGradient
       id="linearGradient4336-3">
      <stop
         id="stop4338-8"
         offset="0"
         style="stop-color:#5884f4;stop-opacity:1" />
      <stop
         style="stop-color:#5884f4;stop-opacity:1"
         offset="0.30756706"
         id="stop4344-3" />
      <stop
         id="stop4346-3"
         offset="0.30756706"
         style="stop-color:#2f5fdd;stop-opacity:1" />
      <stop
         style="stop-color:#2f5fdd;stop-opacity:1"
         offset="0.69206423"
         id="stop4350-1" />
      <stop
         style="stop-color:#234db8;stop-opacity:1"
         offset="0.69206423"
         id="stop4348-6" />
      <stop
         id="stop4340-0"
         offset="1"
         style="stop-color:#234db8;stop-opacity:1" />
    </linearGradient>
  </defs>
  <sodipodi:namedview
     pagecolor="#ffffff"
     bordercolor="#666666"
     borderopacity="1"
     objecttolerance="10"
     gridtolerance="10"
     guidetolerance="10"
     inkscape:pageopacity="0"
     inkscape:pageshadow="2"
     inkscape:window-width="1920"
     inkscape:window-height="1016"
     id="namedview6"
     showgrid="true"
     inkscape:zoom="20.85965"
     inkscape:cx="13.138365"
     inkscape:cy="16.984109"
     inkscape:window-x="0"
     inkscape:window-y="27"
     inkscape:window-maximized="1"
     inkscape:current-layer="svg4"
     inkscape:document-rotation="0">
    <inkscape:grid
       type="xygrid"
       id="grid925" />
  </sodipodi:namedview>
  <path
     id="rect820"
     style="opacity:1;fill:#ffffff;fill-opacity:1;stroke:none;stroke-width:2;stroke-linecap:round;stroke-linejoin:round;stroke-miterlimit:4;stroke-dasharray:none;stroke-opacity:1"
     d="M 1 1 L 1 23 L 13 23 L 13 22 L 13 21.902344 C 13 21.184646 13.060372 20.543567 13.289062 19.935547 C 13.53036 19.289636 13.980817 18.742736 14.580078 18.412109 C 15.015951 18.171395 15.454386 18.073079 15.845703 18.011719 L 15.921875 18 L 16 18 L 16 16 C 16 14.447543 17.090593 13 18.65625 13 L 23 13 L 23 1 L 1 1 z " />
  <path
     id="path2"
     style="fill:#6d6d6d;fill-opacity:1"
     d="M 3 0 C 1 0 0 0 0 2 L 0 22 C 0 24 1 24 3 24 L 13 24 L 13 23 L 9 23 L 9 20 L 13.269531 20 C 13.277079 19.978783 13.281113 19.956682 13.289062 19.935547 C 13.418941 19.587885 13.613809 19.272007 13.855469 19 L 9 19 L 9 16 L 15 16 L 15 18.240234 C 15.292885 18.131972 15.580618 18.053285 15.845703 18.011719 L 15.921875 18 L 16 18 L 16 16 C 16 15.655463 16.061408 15.319527 16.162109 15 L 16 15 L 16 12 L 23 12 L 23 13 L 24 13 L 24 2 C 24 0 23 0 21 0 L 3 0 z M 3 1 L 8 1 L 8 3 L 1 3 L 1 2 C 1 1 2 1 3 1 z M 9 1 L 15 1 L 15 3 L 9 3 L 9 1 z M 16 1 L 21 1 C 22 1 23 1 23 2 L 23 3 L 16 3 L 16 1 z M 1 4 L 8 4 L 8 7 L 1 7 L 1 4 z M 9 4 L 15 4 L 15 7 L 9 7 L 9 4 z M 16 4 L 23 4 L 23 7 L 16 7 L 16 4 z M 1 8 L 8 8 L 8 11 L 1 11 L 1 8 z M 9 8 L 15 8 L 15 11 L 9 11 L 9 8 z M 16 8 L 23 8 L 23 11 L 16 11 L 16 8 z M 1 12 L 8 12 L 8 15 L 1 15 L 1 12 z M 9 12 L 15 12 L 15 15 L 9 15 L 9 12 z M 1 16 L 8 16 L 8 19 L 1 19 L 1 16 z M 1 20 L 8 20 L 8 23 L 3 23 C 2 23 1 23 1 22 L 1 20 z " />
  <g
     id="g841-0"
     style="display:inline"
     transform="translate(11,17)">
    <path
       sodipodi:nodetypes="ssccccsccsccccssssccccsccsccccssscccccsssscccccccsscsc"
       inkscape:connector-curvature="0"
       id="path2013-2-4-9"
       d="m 7.656711,-3 c -0.917563,0 -1.65625,0.892 -1.65625,2 v 3 h -1 c -0.338,0.053 -0.6555,0.131109 -0.9375,0.287109 -0.377,0.208 -0.673891,0.559048 -0.837891,0.998047 -0.164999,0.438 -0.224609,0.959188 -0.224609,1.617188 V 5 8 8.09766 c 0,0.658 0.05961,1.179188 0.224609,1.617188 0.164,0.438996 0.460891,0.790043 0.837891,0.998043 0.282,0.156 0.5995,0.234109 0.9375,0.287109 h 1 l -2.305e-4,2 c -1.277e-4,1.108 0.738687,2 1.65625,2 h 8.6870385 c 0.917563,0 1.656123,-0.892 1.65625,-2 L 18,11 h 1 c 0.338,-0.053 0.6545,-0.131109 0.9375,-0.287109 0.389009,-0.2223 0.686728,-0.576271 0.837891,-0.998047 C 20.940391,9.276844 21,8.754656 21,8.097656 V 8 5 4.902344 C 21,4.245344 20.94039,3.723156 20.775391,3.285156 20.624228,2.863381 20.326509,2.509409 19.9375,2.287109 19.6545,2.131109 19.338,2.053 19,2 h -1 v -3 c 0,-1.108 -0.738687,-2 -1.65625,-2 z M 6.000461,3.039062 V 6 H 18 V 3.039062 c 0.66579,0.03204 1.204393,0.08538 1.453125,0.222657 0.184,0.1 0.289719,0.212656 0.386719,0.472656 C 19.936844,3.994375 20,4.408 20,5 v 3 c 0,0.592 -0.06316,1.005625 -0.160156,1.265625 -0.097,0.26 -0.202719,0.372656 -0.386719,0.472656 C 19.204393,9.875559 18.66579,9.928901 18,9.960938 V 7 H 6.000461 V 9.960938 C 5.333462,9.928918 4.794262,9.875638 4.545383,9.738281 4.362383,9.637282 4.258617,9.525625 4.160617,9.265625 4.063621,9.005625 4.000461,8.592 4.000461,8 V 5 c 0,-0.592 0.06316,-1.005625 0.160156,-1.265625 0.098,-0.26 0.201766,-0.371656 0.384766,-0.472656 0.248879,-0.13736 0.788079,-0.19064 1.455078,-0.222657 z"
       style="color:#000000;font-weight:400;line-height:normal;font-family:sans-serif;font-variant-ligatures:normal;font-variant-position:normal;font-variant-caps:normal;font-variant-numeric:normal;font-variant-alternates:normal;font-feature-settings:normal;text-indent:0;text-align:start;text-decoration:none;text-decoration-line:none;text-decoration-style:solid;text-decoration-color:#000000;text-transform:none;text-orientation:mixed;white-space:normal;shape-padding:0;overflow:visible;opacity:0.7;isolation:auto;mix-blend-mode:normal;fill:#000000;fill-opacity:1;marker:none" />
    <path
       sodipodi:nodetypes="cccccccccccccccccc"
       inkscape:connector-curvature="0"
       id="path4490-3"
       d="m 8.205539,2.929687 c -1.023612,0.01691 -2.052751,-0.03144 -3.072266,0.07813 -0.390161,0.04851 -0.842107,0.180754 -1,0.583985 C 3.86198,4.128087 3.959709,4.75142 3.928195,5.330083 c 0.0061,1.166367 -0.02619,2.334512 0.02344,3.5 0.05,0.4232 0.18132,0.933587 0.621094,1.107422 0.446092,0.207614 0.954227,0.159018 1.427732,0.144526 V 8 H 18 v 2.082031 c 0.118063,0.0465 0.292358,-0.01647 0.417969,0.0078 0.459325,-0.0054 1.000794,-0.0015 1.326172,-0.384766 C 20.142,9.188456 20.036161,8.496682 20.060547,7.888659 20.053947,6.654938 20.085587,5.418443 20.037107,4.185534 19.988097,3.759529 19.80355,3.269751 19.355469,3.128906 18.624657,2.874217 17.83645,2.979669 17.078125,2.945312 14.787236,2.934462 10.496452,2.930192 8.205539,2.929682 Z"
       style="opacity:1;vector-effect:none;fill:#b3b3b3;fill-opacity:1;stroke:none;stroke-width:0.0625;stroke-linecap:round;stroke-linejoin:round;stroke-miterlimit:4;stroke-dasharray:none;stroke-dashoffset:0;stroke-opacity:1" />
    <rect
       y="7"
       x="6.0004611"
       height="4"
       width="11.999538"
       id="rect2016-6"
       style="opacity:1;vector-effect:none;fill:#666666;fill-opacity:1;stroke:none;stroke-width:4;stroke-linecap:butt;stroke-linejoin:round;stroke-miterlimit:4;stroke-dasharray:none;stroke-dashoffset:0;stroke-opacity:1" />
    <path
       sodipodi:nodetypes="ccccccc"
       inkscape:connector-curvature="0"
       id="rect4622-0"
       d="M 7.000461,8 H 17 l -2.31e-4,5 c -0.03156,0.981081 -1,1 -1,1 H 8.0002305 c 0,0 -1,0 -1,-1 z"
       style="opacity:1;vector-effect:none;fill:#ffffff;fill-opacity:1;stroke:none;stroke-width:4;stroke-linecap:butt;stroke-linejoin:round;stroke-miterlimit:4;stroke-dasharray:none;stroke-dashoffset:0;stroke-opacity:1" />
    <path
       sodipodi:nodetypes="ccccc"
       inkscape:connector-curvature="0"
       id="path2005-6"
       d="m 8,10 v 1 h 7.999539 v -1 z"
       style="color:#000000;font-weight:400;line-height:normal;font-family:sans-serif;font-variant-ligatures:normal;font-variant-position:normal;font-variant-caps:normal;font-variant-numeric:normal;font-variant-alternates:normal;font-feature-settings:normal;text-indent:0;text-align:start;text-decoration:none;text-decoration-line:none;text-decoration-style:solid;text-decoration-color:#000000;text-transform:none;text-orientation:mixed;white-space:normal;shape-padding:0;overflow:visible;isolation:auto;mix-blend-mode:normal;fill:#a7a7f1;fill-opacity:1;marker:none" />
    <path
       sodipodi:nodetypes="ccccc"
       inkscape:connector-curvature="0"
       id="path4024-2"
       d="m 8,12 v 1 h 7.999539 v -1 z"
       style="color:#000000;font-weight:400;line-height:normal;font-family:sans-serif;font-variant-ligatures:normal;font-variant-position:normal;font-variant-caps:normal;font-variant-numeric:normal;font-variant-alternates:normal;font-feature-settings:normal;text-indent:0;text-align:start;text-decoration:none;text-decoration-line:none;text-decoration-style:solid;text-decoration-color:#000000;text-transform:none;text-orientation:mixed;white-space:normal;shape-padding:0;overflow:visible;isolation:auto;mix-blend-mode:normal;fill:#a7a7f1;fill-opacity:1;marker:none" />
    <path
       sodipodi:nodetypes="ccccccc"
       inkscape:connector-curvature="0"
       id="rect4622-3-6"
       d="M 7.000461,2 H 17 V -1 C 16.96844,-1.981081 16,-2 16,-2 H 8.000461 c 0,0 -1,0 -1,1 z"
       style="opacity:1;vector-effect:none;fill:#ffffff;fill-opacity:1;stroke:none;stroke-width:4;stroke-linecap:butt;stroke-linejoin:round;stroke-miterlimit:4;stroke-dasharray:none;stroke-dashoffset:0;stroke-opacity:1" />
    <rect
       y="2"
       x="5.0004611"
       height="1"
       width="13.999538"
       id="rect2525-1"
       style="opacity:1;vector-effect:none;fill:#666666;fill-opacity:1;stroke:none;stroke-width:2;stroke-linecap:round;stroke-linejoin:round;stroke-miterlimit:4;stroke-dasharray:none;stroke-dashoffset:0;stroke-opacity:1" />
  </g>
  <rect
     style="fill:#f3d8f2;fill-opacity:1;fill-rule:evenodd;stroke-width:2;stroke-linecap:round;stroke-linejoin:round"
     id="rect895"
     width="14"
     height="10"
     x="1"
     y="1" />
  <path
     id="path885"
     style="fill:#762572;fill-opacity:1"
     d="M 3 0 C 1 0 0 0 0 2 L 0 12 L 1 12 L 8 12 L 9 12 L 15 12 L 16 12 L 16 11 L 16 8 L 16 7 L 16 4 L 16 3 L 16 1 L 16 0 L 3 0 z M 3 1 L 8 1 L 8 3 L 1 3 L 1 2 C 1 1 2 1 3 1 z M 9 1 L 15 1 L 15 3 L 9 3 L 9 1 z M 1 4 L 8 4 L 8 7 L 1 7 L 1 4 z M 9 4 L 15 4 L 15 7 L 9 7 L 9 4 z M 1 8 L 8 8 L 8 11 L 1 11 L 1 8 z M 9 8 L 15 8 L 15 11 L 9 11 L 9 8 z " />
</svg>

<?xml version="1.0" encoding="UTF-8" standalone="no"?>
<svg
   xmlns:dc="http://purl.org/dc/elements/1.1/"
   xmlns:cc="http://creativecommons.org/ns#"
   xmlns:rdf="http://www.w3.org/1999/02/22-rdf-syntax-ns#"
   xmlns:svg="http://www.w3.org/2000/svg"
   xmlns="http://www.w3.org/2000/svg"
   xmlns:sodipodi="http://sodipodi.sourceforge.net/DTD/sodipodi-0.dtd"
   xmlns:inkscape="http://www.inkscape.org/namespaces/inkscape"
   viewBox="0 0 32 32"
   version="1.1"
   id="svg4"
   sodipodi:docname="defineprintarea.svg"
   inkscape:version="1.0.1 (3bc2e813f5, 2020-09-07)"
   inkscape:export-filename="/home/jupiter007/Libreoffice yaru theme fullcolor/build/cmd/32/defineprintarea.png"
   inkscape:export-xdpi="95"
   inkscape:export-ydpi="95">
  <metadata
     id="metadata10">
    <rdf:RDF>
      <cc:Work
         rdf:about="">
        <dc:format>image/svg+xml</dc:format>
        <dc:type
           rdf:resource="http://purl.org/dc/dcmitype/StillImage" />
      </cc:Work>
    </rdf:RDF>
  </metadata>
  <defs
     id="defs8">
    <linearGradient
       id="linearGradient4336-3">
      <stop
         id="stop4338-8"
         offset="0"
         style="stop-color:#5884f4;stop-opacity:1" />
      <stop
         style="stop-color:#5884f4;stop-opacity:1"
         offset="0.30756706"
         id="stop4344-3" />
      <stop
         id="stop4346-3"
         offset="0.30756706"
         style="stop-color:#2f5fdd;stop-opacity:1" />
      <stop
         style="stop-color:#2f5fdd;stop-opacity:1"
         offset="0.69206423"
         id="stop4350-1" />
      <stop
         style="stop-color:#234db8;stop-opacity:1"
         offset="0.69206423"
         id="stop4348-6" />
      <stop
         id="stop4340-0"
         offset="1"
         style="stop-color:#234db8;stop-opacity:1" />
    </linearGradient>
  </defs>
  <sodipodi:namedview
     pagecolor="#ffffff"
     bordercolor="#666666"
     borderopacity="1"
     objecttolerance="10"
     gridtolerance="10"
     guidetolerance="10"
     inkscape:pageopacity="0"
     inkscape:pageshadow="2"
     inkscape:window-width="1920"
     inkscape:window-height="1016"
     id="namedview6"
     showgrid="true"
     inkscape:zoom="20.85965"
     inkscape:cx="6.5653915"
     inkscape:cy="12.024023"
     inkscape:window-x="0"
     inkscape:window-y="27"
     inkscape:window-maximized="1"
     inkscape:current-layer="svg4"
     inkscape:document-rotation="0">
    <inkscape:grid
       type="xygrid"
       id="grid925" />
  </sodipodi:namedview>
  <rect
     style="opacity:1;fill:#ffffff;fill-opacity:1;stroke:none;stroke-width:2;stroke-linecap:round;stroke-linejoin:round;stroke-miterlimit:4;stroke-dasharray:none;stroke-opacity:1"
     id="rect820"
     width="22"
     height="22"
     x="1"
     y="1" />
  <path
     d="m 0,2 v 20 c 0,2 1,2 3,2 h 18 c 2,0 3,0 3,-2 V 2 C 24,0 23,0 21,0 H 3 C 1,0 0,0 0,2 Z M 1,2 C 1,1 2,1 3,1 H 8 V 3 H 1 Z M 9,1 h 6 V 3 H 9 Z m 7,0 h 5 c 1,0 2,0 2,1 V 3 H 16 Z M 1,4 H 8 V 7 H 1 Z m 8,0 h 6 V 7 H 9 Z m 7,0 h 7 V 7 H 16 Z M 1,8 h 7 v 3 H 1 Z m 8,0 h 6 v 3 H 9 Z m 7,0 h 7 v 3 H 16 Z M 1,12 h 7 v 3 H 1 Z m 8,0 h 6 v 3 H 9 Z m 7,0 h 7 v 3 H 16 Z M 1,16 h 7 v 3 H 1 Z m 8,0 h 6 v 3 H 9 Z m 7,0 h 7 v 3 H 16 Z M 1,20 h 7 v 3 H 3 C 2,23 1,23 1,22 Z m 8,0 h 6 v 3 H 9 Z m 7,0 h 7 v 2 c 0,1 -1,1 -2,1 h -5 z"
     id="path2"
     inkscape:connector-curvature="0"
     style="fill:#6d6d6d;fill-opacity:1"
     sodipodi:nodetypes="ccccccccccccccccccccccccccccccccccccccccccccccccccccccccccccccccccccccccccccccccccccccccccccccccccccccc" />
  <g
     id="g841-0"
     style="display:inline"
     transform="translate(11,17)">
    <path
       sodipodi:nodetypes="ssccccsccsccccssssccccsccsccccssscccccsssscccccccsscsc"
       inkscape:connector-curvature="0"
       id="path2013-2-4-9"
       d="m 7.656711,-3 c -0.917563,0 -1.65625,0.892 -1.65625,2 v 3 h -1 c -0.338,0.053 -0.6555,0.131109 -0.9375,0.287109 -0.377,0.208 -0.673891,0.559048 -0.837891,0.998047 -0.164999,0.438 -0.224609,0.959188 -0.224609,1.617188 V 5 8 8.09766 c 0,0.658 0.05961,1.179188 0.224609,1.617188 0.164,0.438996 0.460891,0.790043 0.837891,0.998043 0.282,0.156 0.5995,0.234109 0.9375,0.287109 h 1 l -2.305e-4,2 c -1.277e-4,1.108 0.738687,2 1.65625,2 h 8.6870385 c 0.917563,0 1.656123,-0.892 1.65625,-2 L 18,11 h 1 c 0.338,-0.053 0.6545,-0.131109 0.9375,-0.287109 0.389009,-0.2223 0.686728,-0.576271 0.837891,-0.998047 C 20.940391,9.276844 21,8.754656 21,8.097656 V 8 5 4.902344 C 21,4.245344 20.94039,3.723156 20.775391,3.285156 20.624228,2.863381 20.326509,2.509409 19.9375,2.287109 19.6545,2.131109 19.338,2.053 19,2 h -1 v -3 c 0,-1.108 -0.738687,-2 -1.65625,-2 z M 6.000461,3.039062 V 6 H 18 V 3.039062 c 0.66579,0.03204 1.204393,0.08538 1.453125,0.222657 0.184,0.1 0.289719,0.212656 0.386719,0.472656 C 19.936844,3.994375 20,4.408 20,5 v 3 c 0,0.592 -0.06316,1.005625 -0.160156,1.265625 -0.097,0.26 -0.202719,0.372656 -0.386719,0.472656 C 19.204393,9.875559 18.66579,9.928901 18,9.960938 V 7 H 6.000461 V 9.960938 C 5.333462,9.928918 4.794262,9.875638 4.545383,9.738281 4.362383,9.637282 4.258617,9.525625 4.160617,9.265625 4.063621,9.005625 4.000461,8.592 4.000461,8 V 5 c 0,-0.592 0.06316,-1.005625 0.160156,-1.265625 0.098,-0.26 0.201766,-0.371656 0.384766,-0.472656 0.248879,-0.13736 0.788079,-0.19064 1.455078,-0.222657 z"
       style="color:#000000;font-weight:400;line-height:normal;font-family:sans-serif;font-variant-ligatures:normal;font-variant-position:normal;font-variant-caps:normal;font-variant-numeric:normal;font-variant-alternates:normal;font-feature-settings:normal;text-indent:0;text-align:start;text-decoration:none;text-decoration-line:none;text-decoration-style:solid;text-decoration-color:#000000;text-transform:none;text-orientation:mixed;white-space:normal;shape-padding:0;overflow:visible;opacity:0.7;isolation:auto;mix-blend-mode:normal;fill:#000000;fill-opacity:1;marker:none" />
    <path
       sodipodi:nodetypes="cccccccccccccccccc"
       inkscape:connector-curvature="0"
       id="path4490-3"
       d="m 8.205539,2.929687 c -1.023612,0.01691 -2.052751,-0.03144 -3.072266,0.07813 -0.390161,0.04851 -0.842107,0.180754 -1,0.583985 C 3.86198,4.128087 3.959709,4.75142 3.928195,5.330083 c 0.0061,1.166367 -0.02619,2.334512 0.02344,3.5 0.05,0.4232 0.18132,0.933587 0.621094,1.107422 0.446092,0.207614 0.954227,0.159018 1.427732,0.144526 V 8 H 18 v 2.082031 c 0.118063,0.0465 0.292358,-0.01647 0.417969,0.0078 0.459325,-0.0054 1.000794,-0.0015 1.326172,-0.384766 C 20.142,9.188456 20.036161,8.496682 20.060547,7.888659 20.053947,6.654938 20.085587,5.418443 20.037107,4.185534 19.988097,3.759529 19.80355,3.269751 19.355469,3.128906 18.624657,2.874217 17.83645,2.979669 17.078125,2.945312 14.787236,2.934462 10.496452,2.930192 8.205539,2.929682 Z"
       style="opacity:1;vector-effect:none;fill:#b3b3b3;fill-opacity:1;stroke:none;stroke-width:0.0625;stroke-linecap:round;stroke-linejoin:round;stroke-miterlimit:4;stroke-dasharray:none;stroke-dashoffset:0;stroke-opacity:1" />
    <rect
       y="7"
       x="6.0004611"
       height="4"
       width="11.999538"
       id="rect2016-6"
       style="opacity:1;vector-effect:none;fill:#666666;fill-opacity:1;stroke:none;stroke-width:4;stroke-linecap:butt;stroke-linejoin:round;stroke-miterlimit:4;stroke-dasharray:none;stroke-dashoffset:0;stroke-opacity:1" />
    <path
       sodipodi:nodetypes="ccccccc"
       inkscape:connector-curvature="0"
       id="rect4622-0"
       d="M 7.000461,8 H 17 l -2.31e-4,5 c -0.03156,0.981081 -1,1 -1,1 H 8.0002305 c 0,0 -1,0 -1,-1 z"
       style="opacity:1;vector-effect:none;fill:#ffffff;fill-opacity:1;stroke:none;stroke-width:4;stroke-linecap:butt;stroke-linejoin:round;stroke-miterlimit:4;stroke-dasharray:none;stroke-dashoffset:0;stroke-opacity:1" />
    <path
       sodipodi:nodetypes="ccccc"
       inkscape:connector-curvature="0"
       id="path2005-6"
       d="m 8,10 v 1 h 7.999539 v -1 z"
       style="color:#000000;font-weight:400;line-height:normal;font-family:sans-serif;font-variant-ligatures:normal;font-variant-position:normal;font-variant-caps:normal;font-variant-numeric:normal;font-variant-alternates:normal;font-feature-settings:normal;text-indent:0;text-align:start;text-decoration:none;text-decoration-line:none;text-decoration-style:solid;text-decoration-color:#000000;text-transform:none;text-orientation:mixed;white-space:normal;shape-padding:0;overflow:visible;isolation:auto;mix-blend-mode:normal;fill:#a7a7f1;fill-opacity:1;marker:none" />
    <path
       sodipodi:nodetypes="ccccc"
       inkscape:connector-curvature="0"
       id="path4024-2"
       d="m 8,12 v 1 h 7.999539 v -1 z"
       style="color:#000000;font-weight:400;line-height:normal;font-family:sans-serif;font-variant-ligatures:normal;font-variant-position:normal;font-variant-caps:normal;font-variant-numeric:normal;font-variant-alternates:normal;font-feature-settings:normal;text-indent:0;text-align:start;text-decoration:none;text-decoration-line:none;text-decoration-style:solid;text-decoration-color:#000000;text-transform:none;text-orientation:mixed;white-space:normal;shape-padding:0;overflow:visible;isolation:auto;mix-blend-mode:normal;fill:#a7a7f1;fill-opacity:1;marker:none" />
    <path
       sodipodi:nodetypes="ccccccc"
       inkscape:connector-curvature="0"
       id="rect4622-3-6"
       d="M 7.000461,2 H 17 V -1 C 16.96844,-1.981081 16,-2 16,-2 H 8.000461 c 0,0 -1,0 -1,1 z"
       style="opacity:1;vector-effect:none;fill:#ffffff;fill-opacity:1;stroke:none;stroke-width:4;stroke-linecap:butt;stroke-linejoin:round;stroke-miterlimit:4;stroke-dasharray:none;stroke-dashoffset:0;stroke-opacity:1" />
    <rect
       y="2"
       x="5.0004611"
       height="1"
       width="13.999538"
       id="rect2525-1"
       style="opacity:1;vector-effect:none;fill:#666666;fill-opacity:1;stroke:none;stroke-width:2;stroke-linecap:round;stroke-linejoin:round;stroke-miterlimit:4;stroke-dasharray:none;stroke-dashoffset:0;stroke-opacity:1" />
  </g>
  <rect
     style="fill:#f3d8f2;fill-opacity:1;fill-rule:evenodd;stroke-width:2;stroke-linecap:round;stroke-linejoin:round"
     id="rect895"
     width="14"
     height="10"
     x="1"
     y="1" />
  <path
     id="path885"
     style="fill:#762572;fill-opacity:1"
     d="M 3 0 C 1 0 0 0 0 2 L 0 12 L 1 12 L 8 12 L 9 12 L 15 12 L 16 12 L 16 11 L 16 8 L 16 7 L 16 4 L 16 3 L 16 1 L 16 0 L 3 0 z M 3 1 L 8 1 L 8 3 L 1 3 L 1 2 C 1 1 2 1 3 1 z M 9 1 L 15 1 L 15 3 L 9 3 L 9 1 z M 1 4 L 8 4 L 8 7 L 1 7 L 1 4 z M 9 4 L 15 4 L 15 7 L 9 7 L 9 4 z M 1 8 L 8 8 L 8 11 L 1 11 L 1 8 z M 9 8 L 15 8 L 15 11 L 9 11 L 9 8 z " />
</svg>
